X:1
T:Cameron's Favorite
M:C
L:1/8
R:(Lancashire) Clog
S:Ryan's Mammoth Collection (1883)
Z:AK/Fiddler's Companion
K:G
(d>.c) | (B>.d)(g>.f) g2 (d>.c) | B>dg>f g2 d>c | B>ba>g f>ed>^c | d>fa>g f>ed>c |
B>dg>f g2 d>c | B>dg>f g2 g>f | e>fg>e f>ga>f | g2b2g2 :: (g>.a) | (b>.a)(b>.g) a2 (e>.f) |
g>fg>e d2 d>B | c>de>c B>cd>B | A>^GA>B A2 g>a | b>ab>g a2 e>f |
g>fg>e d2 g>f | e>fg>e f>ga>g | g2b2g2 :|

